ci/cil-memory.svg

<svg xmlns="http://www.w3.org/2000/svg" viewBox="0 0 512 512" height="1em" width="1em">
  <path fill="var(--ci-primary-color, currentColor)" d="M192 320h128V192H192Zm32-96h64v64h-64Z" class="ci-primary"/>
  <path fill="var(--ci-primary-color, currentColor)" d="M32 288v32h72v88h88v72h32v-72h64v72h32v-72h88v-88h72v-32h-72v-64h72v-32h-72v-88h-88V32h-32v72h-64V32h-32v72h-88v88H32v32h72v64Zm104-152h240v240H136Z" class="ci-primary"/>
</svg>

<svg xmlns="http://www.w3.org/2000/svg" viewBox="0 0 512 512" height="1em" width="1em">
  <path fill="var(--ci-primary-color, currentColor)" d="M192,320H320V192H192Zm32-96h64v64H224Z" class="ci-primary"/>
  <path fill="var(--ci-primary-color, currentColor)" d="M32,288v32h72v88h88v72h32V408h64v72h32V408h88V320h72V288H408V224h72V192H408V104H320V32H288v72H224V32H192v72H104v88H32v32h72v64ZM136,136H376V376H136Z" class="ci-primary"/>
</svg>
